X: 42
T:Rose Tree In Full Bloom,The. JaW.042
M:C
Q:1/4=200
S:James Winder Ms, Lancashire, 1835-41
R:Country Dance
O:England
A:Wyresdale,Lancashire
H:1/8
Z:vmp.Chris Partington, Aug 2004
K:C
(ed)|c2A2G2E2|G3AG2G2|c4 edcd|e2d2-d2 (ed)|!
c3AG2E2|G3AG2G2|c4 edcd|e2c2c2:|!
|:z2|c2d2 cdef|g3a g2fe|a2a2g3a|d4d3e/c/|!
c2A2G2E2|G3AG2G2|c4 edcd||e2c2c2:|]
